packages/assets/static/images/icons/bulldozer.svg

<svg width="25" height="24" viewBox="0 0 25 24" xmlns="http://www.w3.org/2000/svg">
<path d="M22.8737 18.375H22.1237C22.0242 18.375 21.9289 18.3355 21.8585 18.2652C21.7882 18.1948 21.7487 18.0995 21.7487 18V15C21.7487 14.9005 21.7882 14.8052 21.8585 14.7348C21.9289 14.6645 22.0242 14.625 22.1237 14.625H22.8737C23.1721 14.625 23.4582 14.5065 23.6692 14.2955C23.8802 14.0845 23.9987 13.7984 23.9987 13.5C23.9987 13.2016 23.8802 12.9155 23.6692 12.7045C23.4582 12.4935 23.1721 12.375 22.8737 12.375H22.1237C21.4275 12.375 20.7598 12.6516 20.2675 13.1438C19.7753 13.6361 19.4987 14.3038 19.4987 15V15.375H18.5912C18.3816 14.6408 17.9728 13.9789 17.4102 13.4627C16.8477 12.9464 16.1532 12.5959 15.4037 12.45L12.1037 4.52906C11.9614 4.1875 11.7213 3.89566 11.4135 3.6903C11.1057 3.48493 10.744 3.37523 10.374 3.375H2.2487C2.00247 3.375 1.75865 3.4235 1.53117 3.51773C1.30368 3.61195 1.09699 3.75006 0.922875 3.92417C0.571245 4.27581 0.3737 4.75272 0.3737 5.25V14.7844C0.0863481 15.4127 -0.0385849 16.1031 0.0103684 16.7923C0.0593216 17.4814 0.280593 18.1473 0.653873 18.7287C1.02715 19.31 1.54048 19.7884 2.14675 20.1197C2.75302 20.451 3.4328 20.6248 4.1237 20.625H14.6237C15.5211 20.6238 16.3938 20.3304 17.1096 19.7891C17.8255 19.2479 18.3456 18.4882 18.5912 17.625H19.4987V18C19.4987 18.6962 19.7753 19.3639 20.2675 19.8562C20.7598 20.3484 21.4275 20.625 22.1237 20.625H22.8737C23.1721 20.625 23.4582 20.5065 23.6692 20.2955C23.8802 20.0845 23.9987 19.7984 23.9987 19.5C23.9987 19.2016 23.8802 18.9155 23.6692 18.7045C23.4582 18.4935 23.1721 18.375 22.8737 18.375ZM12.9362 12.375H6.3737V5.625H10.1237L12.9362 12.375ZM4.1237 5.625V12.375C3.61053 12.3743 3.10176 12.4697 2.6237 12.6562V5.625H4.1237ZM14.6237 18.375H4.1237C3.62642 18.375 3.14951 18.1775 2.79788 17.8258C2.44624 17.4742 2.2487 16.9973 2.2487 16.5C2.2487 16.0027 2.44624 15.5258 2.79788 15.1742C3.14951 14.8225 3.62642 14.625 4.1237 14.625H14.6237C15.121 14.625 15.5979 14.8225 15.9495 15.1742C16.3012 15.5258 16.4987 16.0027 16.4987 16.5C16.4987 16.9973 16.3012 17.4742 15.9495 17.8258C15.5979 18.1775 15.121 18.375 14.6237 18.375Z"/>
</svg>

<svg viewBox="0 0 25 24" xmlns="http://www.w3.org/2000/svg" aria-hidden="true" fill="currentColor" height="24px" width="24px"><path d="M22.874 18.375h-.75a.375.375 0 0 1-.375-.375v-3a.375.375 0 0 1 .375-.375h.75a1.125 1.125 0 1 0 0-2.25h-.75A2.625 2.625 0 0 0 19.499 15v.375h-.908a4.14 4.14 0 0 0-3.187-2.925l-3.3-7.92a1.875 1.875 0 0 0-1.73-1.155H2.249A1.875 1.875 0 0 0 .374 5.25v9.534a4.125 4.125 0 0 0 3.75 5.841h10.5a4.13 4.13 0 0 0 3.967-3h.908V18a2.625 2.625 0 0 0 2.625 2.625h.75a1.125 1.125 0 1 0 0-2.25m-9.938-6H6.374v-6.75h3.75zm-8.812-6.75v6.75c-.513 0-1.022.095-1.5.281V5.625zm10.5 12.75h-10.5a1.875 1.875 0 1 1 0-3.75h10.5a1.875 1.875 0 1 1 0 3.75"/></svg>
